X:1
T:Title
%%score 1 2
L:1/8
Q:1/4=90
M:4/4
K:F
V:1 treble nm="Strings 1, Soprano"
V:2 bass nm="Strings 1, Bass"
V:1
 [FA]3 [FA] [FB][FA][CG][CF] | [B,D]4 [DF]4 | [Cc]3 [Fd] [Fc][FA][CG][DF] | [EG]6 z2 | %4
w: 1.~Oft~ my~ heart~ has~ bled~ with~|sor row,~|Not~ a~ friend~ my~ grief~ to~|share;~|
 [FA]3 [FA] [FB][FA][CG][CF] | [B,D]4 [DF]4 | [EG]3 [EG] [Ec][EB][EA][EG] | F6 z2 | %8
w: But~ I~ yield ed,~ Christ~ to~|fol low,~|And~ He~ took~ my~ load~ of~|care.~|
 [EG]3 [_E^F] [=EG][=FA][GB][Ed] | [Fc]4 [FA]4 | [Af]3 [Af] [Ac][Bd] [Ac]>[FA] | [EG]6 z2 | %12
w: ||||
 [FA]3 [FA] [FB][FA][CG][CF] | [B,D]4 [DF]4 | [EG]3 [EG] [Ec][EB][EA][EG] | F6 z2 |] %16
w: ||||
V:2
 [F,C]3 [F,C] [F,D][F,C][F,B,][F,A,] | [B,,B,]4 [B,,B,]4 | [F,A,]3 [F,B,] [F,A,][F,C][E,C][D,=B,] | %3
 [C,C]6 z2 | [F,C]3 [F,C] [F,D][F,C][F,B,][F,A,] | [B,,B,]4 [B,,B,]4 | %6
 [C,B,]3 [C,B,] [C,G,][C,G,][C,C][C,B,] | [F,A,]6 z2 | [C,C]3 [C,C] [C,C][C,C][C,C][C,B,] | %9
 [F,A,]4 [F,C]4 | [F,C]3 [F,C] [F,F][F,F] [F,F]>[F,C] | [C,C]6 z2 | %12
 [F,C]3 [F,C] [F,D][F,C][F,B,][F,A,] | [B,,B,]4 [B,,B,]4 | [C,B,]3 [C,B,] [C,G,][C,G,][C,C][C,B,] | %15
 [F,A,]6 z2 |] %16

